!!!!SEGMENT: d-b--slg-bohn-ms-mus-111--005_jarzebski-adam--canzoni-e-concerti-5-diligam-te-domine.krn
!!!cenid: 16xx:1778
!!!COM: Jarzębski, Adam
!!!COM-rismID: pe30017782
!!!CDT:
!!!CNT:
!!!GTL: Canzoni e Concerti
!!!OTL: 5. Diligam te Domine
!!!OMV: 005
!!!PDT: 1627
!!!AGN:
!!!SMS-siglum: D-B
!!!SMS-shelfmark: Slg Bohn Ms.mus. 111
!!!SMS-shelfwork: 002-005 G
!!!SMS-variant:
!!!SMS-altvar:
!!!NIFC-rismSourceID: 1001062014
!!!NIFC-rismChildID: 1001062014
!!!NIFC-islandoraID: none
!!!URL-pdf-islandora:
!!!URL-scan: https://digital.staatsbibliothek-berlin.de/werkansicht/?PPN=PPN1049147219 @EN{Scan on Staatsbibliothek zu Berlin Website} @PL{Skany w portalu Staatsbibliothek zu Berlin}
!!!IIIF:
!!!ONB-nifc: UWAGA: Prima vox: s. 8-10, Seconda vox: s. 68-69 , Basso continuo: s. 167. Uwaga: proszę wpisywać partie tylko występujące w danym koncercie i nazywać partie wg określeń podawanych przy danym utworze. Kody instr. dla humdrumowców podane zostaną na forum.
!!!AIN: 3 empty
!!!key: d:dor
**kern	**kern	**kern
*part3	*part2	*part1
*	*group1	*group1
*staff3	*staff2	*staff1
*Iempty	*Iempty	*Iempty
*I"Baſso Continúo.	*I"Viola Bastarda	*I"[Prima Vox]
*I'bc	*I'vla	*I'V
*clefC4	*clefF4	*clefC1
*k[]	*k[]	*k[]
*d:dor	*d:dor	*d:dor
*M2/2	*M2/2	*M2/2
*met(c|)	*met(c|)	*met(c|)
*met(C|)	*met(C|)	*met(C|)
=1-	=1-	=1-
!!LO:TX:t=P:problem:nie wprowadzamy kodów instrumentów, nie zostały jeszcze ustalone [konsultacja z E.Z.]
!!LO:TX:t=P:problem:4,8,16\right, 2\middle:global
2.D/	2r	2.d/
.	2.D/	.
4D/	.	4d/
=2-	=2-	=2-
2D/	.	2d/
.	4D/	.
!	!LO:TX:t=P:problem:kreska pseudotaktowa	!LO:TX:t=P:problem:kreska pseudotaktowa
2.D/	2D/	[2f/
=3-	=3-	=3-
.	[2F\	8f/L]
.	.	8e/
4D/	.	8f/
.	.	8g/J
!LO:TX:t=P:problem:kreska pseudotaktowa	!	!
2D/	8F\L]	[2a\
.	8E\	.
.	8F\	.
.	8G\J	.
=4-	=4-	=4-
2D/	[2A\	8a\L]
.	.	8g\
.	.	8a\
.	.	8b\J
*clefF4	*	*
!	!	!LO:TX:t=P:problem:kreska pseudotaktowa
2.AA/	8A\L]	[2cc\
.	8G\	.
.	8A\	.
.	8B\J	.
=5-	=5-	=5-
.	[2c\	8cc\L]
.	.	8g\
4AA/	.	8a\
.	.	8b\J
*	*	*clefG2
!LO:TX:t=P:problem:kreska pseudotaktowa	!LO:TX:t=P:problem:mixed beam	!LO:TX:t=P:problem:kreska pseudotaktowa
2AA/	8c\L]	[2cc\
.	8GG/	.
.	8AA/	.
.	8BB/J	.
=6-	=6-	=6-
2.C/	[2C/	8cc\L]
.	.	8b\
.	.	8cc\
.	.	8dd\J
!	!	!LO:TX:t=P:problem:kreska pseudotaktowa
.	8C/L]	[2ee\
.	8BB/	.
4D/	8C/	.
.	8D/J	.
=7-	=7-	=7-
2.E\	[2E\	8ee\L]
.	.	8dd\
.	.	8ee\
.	.	8ff\J
.	8E\L]	[1gg\
.	8D\	.
!LO:TX:t=P:problem:kreska pseudotaktowa	!	!
4F\	8E\	.
.	8F\J	.
*	*custos:G	*
!	!LO:LB:g=original	!
=8-	=8-	=8-
2G\	4.G\	.
.	8F\	.
2E\	8E\L	8gg\L]
.	8D\	8ff\
.	8C\	8ee\
!	!LO:TX:t=P:problem:kreska pseudotaktowa	!
.	8BB\J	8dd\J
*	*	*custos:cc
!	!	!LO:LB:g=original
=9-	=9-	=9-
!LO:TX:t=P:problem:kreska pseudotaktowa	!	!
1A	4AA/	8cc\L
.	.	8b\
*	*clefC4	*
.	4.A/	8a\
.	.	8b\J
.	.	8cc\L
.	8B\L	8dd\
.	8c\	8ee\
!	!	!LO:TX:t=P:problem:kreska pseudotaktowa
!	!	!LO:TX:t=P:problem:# above
.	8d\J	8ff#X\J
=10-	=10-	=10-
1E	4e\	8gg#X\L
.	.	8ee\J
.	8d\L	2aa\
.	8c\	.
.	8B\	.
.	8A\J	.
!	!LO:TX:t=P:problem:kreska pseudotaktowa	!
.	4B\	4gg#X\,
=11-	=11-	=11-
2AA/	1A	4.aa\
.	.	8a/
2.AA/	.	4a/
!	!	!LO:TX:t=P:problem:kreska pseudotaktowa
.	.	4a/
*	*clefF4	*
=12-	=12-	=12-
.	4r	2cc\
4AA/	4AA/	.
!LO:TX:t=P:problem:kreska pseudotaktowa	!	!
2AA/	4AA/	2r
.	4AA/	.
=13-	=13-	=13-
2C/	2C/	8r
.	.	8ee\L
.	.	8ee\
.	.	8ee\J
!	!	!LO:TX:t=P:problem:kreska pseudotaktowa
2GG/	8r	2ggny\
.	8G\L	.
.	8G\	.
.	8G\J	.
=14-	=14-	=14-
1D	2d\	8r
.	.	8dd\L
.	.	16ffny\L
.	.	16dd\
.	.	16ff\
.	.	16gg\JJ
*	*custos:D	*
!	!LO:LB:g=original	!
.	8r	4.aa\
.	8D/	.
.	16F\LL	.
.	16D\	.
!	!	!LO:TX:t=P:problem:kreska pseudotaktowa
.	16F\	8a/
!	!LO:TX:t=P:problem:kreska pseudotaktowa	!
.	16G\JJ	.
*custos:AA	*	*
!LO:LB:g=original	!	!
=15-	=15-	=15-
!	!LO:TX:t=P:problem:mixed beam	!
4AA/	8A\L	16cc\LL
.	.	16a\
.	8AA/	16cc\
.	.	16dd\JJ
4AA/	8AA/	8ee\L
.	8AA/J	16aa\L
.	.	16gg\JJ
*	*	*custos:ff
!	!	!LO:LB:g=original
4D/	8DD/L	8ff#X\L
.	16D/L	8dd\
.	16C/JJ	.
4GG/	8BB/L	8.gg\
!	!LO:TX:t=P:problem:kreska pseudotaktowa	!
.	8GG/J	.
!	!	!LO:TX:t=P:problem:kreska pseudotaktowa
.	.	16ff#\Jk
=16-	=16-	=16-
!	!LO:TX:t=P:problem:mixed beam	!
2AA/	8AA/L	16ee\LL
.	.	16dd\
!	!	!LO:TX:t=P:problem:# above
.	8.A\	16cc#X\
.	.	16b\JJ
.	.	8cc#X\L
.	16G\L	.
.	16F\	8.aa\
.	16E\JJ	.
!LO:TX:t=P:problem:kreska pseudotaktowa	!LO:TX:t=P:problem:mixed beam	!
2D/	8D/L	.
.	.	16gg\L
!	!	!LO:SIC:v:s=16ffn#\
.	8.d\	16ffny\
.	.	16ee\JJ
.	.	8ff#X\L
.	16c\L	.
!	!	!LO:TX:t=P:problem:kreska pseudotaktowa:między nutą a kropką
.	16B\	8.dd\
.	16A\JJ	.
=17-	=17-	=17-
4G\	8.G\L	.
.	.	16ccny\J
!	!	!LO:TX:t=P:problem:mixed beam
.	.	8b/L
.	16F\JK	.
4E\	8.E\L	8.gg\
.	16D\Jk	16ffny\Jk
4C/	8.C/L	8.ee\L
.	16BB/Jk	16dd\Jk
4AA/	8AA/L	8cc\L
.	16GG/L	16b\L
!	!LO:TX:t=P:problem:kreska pseudotaktowa	!LO:TX:t=P:problem:kreska pseudotaktowa
.	16FF/JJ	16a\JJ
=18-	=18-	=18-
2E\	8EE/L	4b/
.	8DD/J	.
.	4EE/	8cc/L
.	.	8b/J
!LO:TX:t=P:problem:kreska pseudotaktowa	!LO:TX:t=P:problem:kreska pseudotaktowa	!
2AA/	2AA/	2a/
*	*custos:D	*
!	!LO:LB:g=original	!
=19-	=19-	=19-
4D/	4r	1r
4D/	4D/	.
4C/	16C/LL	.
.	16AA/	.
.	16C/	.
.	16BB/JJ	.
4AA/	16AA/LL	.
.	16GG/	.
.	16FF/	.
!	!LO:TX:t=P:problem:kreska pseudotaktowa	!
.	16EE/JJ	.
=20-	=20-	=20-
4D/	4DD/	8r
.	.	8aa\
4GG/	4GG/	16gg\LL
!	!	!LO:TX:t=P:problem:korekta wysokości
.	.	16dd\
.	.	16gg\
.	.	16ff\JJ
!LO:TX:t=P:problem:kreska pseudotaktowa	!	!
2AA/	2AA/	16ee\LL
.	.	16dd\
.	.	16cc#X\
.	.	16b\JJ
*	*	*custos:cc
!	!	!LO:LB:g=original
!	!	!LO:TX:t=P:problem:kreska pseudotaktowa
.	.	4cc#X\
=21-	=21-	=21-
2D/	4D/	4dd\
.	4d\	4ff\
4C/	8.c\L	8.ee\L
.	16A\Jk	16ccny\Jk
4C/	8.c\L	8.ee\L
!	!LO:TX:t=P:problem:kreska pseudotaktowa	!LO:TX:t=P:problem:kreska pseudotaktowa
.	16B\Jk	16dd\Jk
=22-	=22-	=22-
4F\	16A\LL	16cc/LL
.	16G\	16b/
.	16F\	16a/
.	16E\JJ	16g/JJ
!	!	!LO:TX:t=P:problem:mixed beam
4D/	16D\LL	8f/L
.	16E\	.
.	16F\	8aa\J
.	16D\JJ	.
4E\	8.E\L	8.gg\L
.	16D\Jk	16ff\KJ
!LO:TX:t=P:problem:kreska pseudotaktowa	!	!
4C/	8C/L	8ee\L
.	16BB/L	16dd\L
!	!LO:TX:t=P:problem:kreska pseudotaktowa	!LO:TX:t=P:problem:kreska pseudotaktowa
.	16AA/JJ	16cc\JJ
=23-	=23-	=23-
2GG/	8GG/L	8b/
.	8FF/J	4cc\
.	4GG/	.
.	.	8b/
!	!	!LO:TX:t=P:problem:kreska pseudotaktowa
2C/	2C/	2cc\
*	*custos:E	*
!	!LO:LB:g=original	!
=24-	=24-	=24-
2E\	2r	4r
.	.	4cc\
!LO:TX:t=P:problem:kreska pseudotaktowa	!LO:TX:t=P:problem:kreska pseudotaktowa	!
2E\	2E\	16b\LL
.	.	16ee\
.	.	16gg\
.	.	16ff\JJ
.	.	16ee\LL
.	.	16dd\
.	.	16cc\
!	!	!LO:TX:t=P:problem:kreska pseudotaktowa
.	.	16b\JJ
=25-	=25-	=25-
2A\	16AA/	4cc\
*	*clefC4	*
.	16A\	.
.	16c\LL	.
.	16B\JJ	.
.	16A/LL	4r
.	16G/	.
.	16F/	.
.	16E/JJ	.
2D/	16D/LL	16f#X/LL
.	16E/	16g/
.	16F/	16a/
.	16G/JJ	16b/JJ
*	*	*custos:cc
!	!	!LO:LB:g=original
.	16A\LL	16cc\LL
.	16B\	16dd\
.	16c\	16ee\
!	!	!LO:TX:t=P:problem:kreska pseudotaktowa
!	!	!LO:TX:t=P:problem:# above
.	16d\JJ	16ff#X\JJ
=26-	=26-	=26-
!LO:TX:t=P:problem:kreska pseudotaktowa	!	!
1E	4e\	8gg#X\L
.	.	8ee\J
.	8d\L	2aa\
.	8c\J	.
.	8B\L	.
.	8A\J	.
!	!LO:TX:t=P:problem:kreska pseudotaktowa	!
.	4B\	4gg#X\
*custos:AA	*	*
!LO:LB:g=original	!	!
=27-	=27-	=27-
2AA/	4.A/	4aa\
.	.	8ggny\L
*	*clefF4	*
.	8AA/	8ffny\
2AA/	4AA/	8ee\
.	.	8dd\J
!	!LO:TX:t=P:problem:kreska pseudotaktowa	!
.	4AA/	4ee\,
=28-	=28-	=28-
2D/	8D/	2dd\
*	*clefC4	*
*	*custos:d	*
!	!LO:LB:g=original	!
.	8d\	.
.	16d\LL	.
.	16e\	.
.	16d\	.
.	16c\JJ	.
!LO:TX:t=P:problem:kreska pseudotaktowa	!LO:TX:t=P:problem:kreska pseudotaktowa	!
2GG/	2B\	8r
.	.	8gg\
.	.	16gg\LL
.	.	16aa\
.	.	16gg\
!	!	!LO:TX:t=P:problem:kreska pseudotaktowa
.	.	16ff\JJ
=29-	=29-	=29-
1AA	8r	2ee\
!	!LO:TX:t=P:problem:# przd 8r	!
.	8c#X\	.
.	16c#\LL	.
.	16d\	.
.	16c#\	.
.	16B\JJ	.
.	2A/	8r
.	.	8aa\L
.	.	16aa\L
.	.	16bb-X\
.	.	16aa\
!	!	!LO:TX:t=P:problem:kreska pseudotaktowa
.	.	16gg\JJ
*	*clefF4	*
=30-	=30-	=30-
2D/	8r	2ff#X\
.	8D\	.
.	16D\LL	.
.	16E\	.
.	16D\	.
.	16C\JJ	.
!LO:TX:t=P:problem:kreska pseudotaktowa	!LO:TX:t=P:problem:kreska pseudotaktowa	!
2GG/	2BB/	8r
.	.	8gg\L
.	.	16gg\L
.	.	16aa\
.	.	16gg\
!	!	!LO:TX:t=P:problem:kreska pseudotaktowa
.	.	16ff#\JJ
=31-	=31-	=31-
2C/	8r	2ee\
.	8C/	.
.	16C/LL	.
.	16D/	.
.	16C/	.
.	16BB/JJ	.
!	!LO:TX:t=P:problem:kreska pseudotaktowa	!
1AA/	2AA/	8r
*	*	*custos:cc
!	!	!LO:LB:g=original
.	.	8cc\LL
.	.	16cc\
.	.	16dd\
.	.	16cc\
!	!	!LO:TX:t=P:problem:kreska pseudotaktowa
.	.	16b\JJ
=32-	=32-	=32-
!	!	!LO:TX:t=P:problem:mixed beam
.	8r	8a/L
.	8cny\	8ee\J
.	16c\LL	16ee\LL
.	16d\	16ffny\
.	16c\	16ee\
.	16B\JJ	16dd\JJ
*	*custos:A	*
!	!LO:LB:g=original	!
!LO:TX:t=P:problem:kreska pseudotaktowa	!LO:TX:t=P:problem:mixed beam	!
2AA/	8A\L	8cc\
.	8AA/J	8a/
.	32D\LLL	4aa\
.	32E\	.
.	32F\	.
.	32G\JJJ	.
.	32A\LLL	.
.	32B\	.
.	32c\	.
!	!LO:TX:t=P:problem:kreska pseudotaktowa	!
.	32A\JJJ	.
=33-	=33-	=33-
2.BB/	4B\	2gg\
.	2BB/	.
.	.	8.aa\L
.	.	16bbny\Jk
4C/	4C/	8.aa\L
!	!	!LO:TX:t=P:problem:kreska pseudotaktowa
.	.	16gg\Jk
=34-	=34-	=34-
!LO:TX:t=P:problem:kreska pseudotaktowa	!	!
1D	1D	8.ff#X\L
.	.	16dd\Jk
.	.	16gg\LL
.	.	16ee\
.	.	16aa\
!	!	!LO:TX:t=P:problem:# above
.	.	16ff#X\JJ
.	.	16gg\LL
.	.	16ff#X\
.	.	16gg\
!	!	!LO:TX:t=P:problem:# above
.	.	16ff#X\JJ
.	.	16gg\LL
!	!	!LO:TX:t=P:problem:# above
.	.	16ff#X\
.	.	16ee\
!	!	!LO:TX:t=P:problem:# above
.	.	16ff#X\JJ
=35-	=35-	=35-
1GG	16GG/	2gg\
.	8B\	.
.	16G\	.
.	16c\LL	.
.	16A\JJ	.
.	16d\LL	.
.	16B\JJ	.
!	!	!LO:TX:t=P:problem:kreska pseudotaktowa
.	16c\LL	2r
.	16B\	.
.	16c\	.
.	16B\	.
.	16c\	.
.	16B\	.
.	16A\	.
!	!LO:TX:t=P:problem:kreska pseudotaktowa	!
.	16B\JJ	.
=36-	=36-	=36-
2.C/	2c\	8r
.	.	8ee\L
.	.	8ee\
.	.	8ee\J
*	*	*custos:gg
!	!	!LO:LB:g=original
.	8r	16gg\LL
.	.	16ee\
.	8c\L	16gg\
.	.	16ffny\JJ
!LO:TX:t=P:problem:kreska pseudotaktowa	!	!
4C/	8c\	16ee\LL
.	.	16cc\
!	!LO:TX:t=P:problem:kreska pseudotaktowa	!
.	8c\J	16ee\
!	!	!LO:TX:t=P:problem:kreska pseudotaktowa
.	.	16dd\JJ
*	*custos:A	*
!	!LO:LB:g=original	!
=37-	=37-	=37-
2AA/	16A\LL	16cc\LL
.	16F\	16a\
.	16A\	16cc\
.	16G\JJ	16b\JJ
.	16F\LL	16a/LL
.	16D\	16fny/
.	16F\	16a/
.	16E\JJ	16g/JJ
2D/	16D/LL	16f/LL
.	16BB/	16d/
.	16D/	16f/
.	16C/JJ	16e/JJ
*	*	*clefC3
.	16BB/LL	16d\LL
.	16GG/	16B\
.	16BB/	16d\
!	!	!LO:TX:t=P:problem:kreska pseudotaktowa
.	16AA/JJ	16c\JJ
*	*clefF5	*
=38-	=38-	=38-
2GG/	16GG/LL	16B/LL
.	16EE/	16G/
.	16GG/	16B/
.	16FF/JJ	16A/JJ
.	16EE/LL	16G/LL
.	16CC/	16E/
.	16EE/	16G/
.	16DD/JJ	16F/JJ
!	!LO:TX:t=P:problem:mixed beam	!
1C/	8CC/L	8E/
*	*	*clefG2
.	8G\J	8ee\L
.	8.G\L	8ee\
!	!	!LO:TX:t=P:problem:kreska pseudotaktowa
.	.	8.gg\J
!	!LO:TX:t=P:problem:kreska pseudotaktowa	!
.	16F\Jk	.
=39-	=39-	=39-
.	16E\LL	.
.	16C\	16ee\LL
.	16E\	16gg\
.	16D\JJ	16ff\JJ
.	16C\LL	16ee\LL
.	16AA\	16cc\
.	16C\	16ee\
.	16BB\JJ	16dd\JJ
*	*custos:AA	*
!LO:TX:t=P:problem:kreska pseudotaktowa	!LO:LB:g=original	!
2AA/	16AA/LL	16cc\LL
.	16FF/	16a\
.	16AA/	16cc\
.	16GG/JJ	16b\JJ
*	*	*custos:a
!	!	!LO:LB:g=original
.	16FF/LL	16a/LL
.	16GG/	16b/
.	16AA/	16cc/
!	!LO:TX:t=P:problem:kreska pseudotaktowa	!LO:TX:t=P:problem:kreska pseudotaktowa
.	16FF/JJ	16a/JJ
=40-	=40-	=40-
!	!LO:TX:t=P:problem:mixed beam	!
2E\	8EE/L	8b/
.	8.E\	8.gg\
.	16C\L	16ee\LL
.	16E\	16gg\
.	16D\JJ	16ff\JJ
2AA/	16C\LL	16ee\LL
.	16AA\	16cc\
.	16C\	16ee\
.	16BB\JJ	16dd\JJ
.	16AA/LL	16cc\LL
.	16BB/	16dd\
.	16C/	16ee\
!	!LO:TX:t=P:problem:kreska pseudotaktowa	!LO:TX:t=P:problem:kreska pseudotaktowa
.	16D/JJ	16ff\JJ
=41-	=41-	=41-
1E	8E\L	8gg#X\L
.	16D\L	8ee\J
.	16C\JJ	.
.	16BB/LL	2aa\
.	16AA/	.
.	16GG/	.
.	16FF/JJ	.
.	8EE/L	.
.	8DD/J	.
!	!LO:TX:t=P:problem:kreska pseudotaktowa	!LO:TX:t=P:problem:kreska pseudotaktowa
.	4EE/	4gg#X\
=42-	=42-	=42-
2AA/	2AA/	8aa\L
.	.	16ee\L
.	.	16dd\J
.	.	8cc\
.	.	8b\J
*	*clefF4	*
!	!	!LO:TX:t=P:problem:mixed beam
2D/	8r	8a/L
.	16F\LL	16aa\L
.	16E\JJ	16ggny\J
.	8D/LL	8ff\
.	.	.
!	!	!LO:TX:t=P:problem:kreska pseudotaktowa
.	8C/JJ	8ee\J
!	!LO:TX:t=P:problem:kreska pseudotaktowa	!
.	.	.
*	*custos:BB	*
!	!LO:LB:g=original	!
=43-	=43-	=43-
2BB-/	8BB-X/L	8dd\L
.	16D/L	16ff\L
!	!	!LO:TX:t=P:problem:♭ above
.	16C/JJ	16ee-X\J
.	8BB-X/L	8dd\
.	8AA/J	8cc\J
!	!LO:TX:t=P:problem:mixed beam	!
!	!	!LO:SIC:v:s=8b-\L
2GG/	8GG/L	8b\L
!	!	!LO:SIC:v:s=16b-\L
.	16G\L	16b\L
.	16A\J	16cc\J
.	8B-X\	8dd\
!	!LO:TX:t=P:problem:kreska pseudotaktowa	!LO:TX:t=P:problem:kreska pseudotaktowa
!	!	!LO:SIC:v:s=8b-\J
.	8G\J	8b\J
*custos:AA	*	*custos:cc
!LO:LB:g=original	!	!LO:LB:g=original
=44-	=44-	=44-
1AA	8A\L	8cc#X\L
.	16G\L	8a\J
.	16F\JJ	.
.	16E/LL	2dd\
.	16D/	.
.	16C/	.
.	16BBny/JJ	.
.	8AA/L	.
.	8GG/J	.
!	!	!LO:TX:t=P:problem:kreska pseudotaktowa
.	4AA/	4cc#X\
=45-	=45-	=45-
!LO:TX:t=P:problem:kreska pseudotaktowa	!	!
1D	1DD	1dd
=46-	=46-	=46-
0C	8r	1r
.	8c\L	.
.	8Bny\	.
.	8A\J	.
.	8G\L	.
.	8F\	.
.	8E\	.
!	!LO:TX:t=P:problem:kreska pseudotaktowa	!
.	8D\J	.
=47-	=47-	=47-
!	!LO:TX:t=P:problem:mixed beam	!
.	8C/L	2r
.	8F\	.
.	8E\	.
.	8D\J	.
*	*custos:C	*
!	!LO:LB:g=orginal	!
.	8C/L	8r
.	8E/	8gg\L
.	8D/	8ff\
!	!	!LO:TX:t=P:problem:kreska pseudotaktowa
.	8C/J	8eeny\J
=48-	=48-	=48-
1GG	8BB/L	8dd\L
.	8AA/J	8ccny\
.	4GG/	8b\
.	.	8a\J
.	8G\L	4g/
.	8F\	.
.	8E\	8gg\L
!	!	!LO:TX:t=P:problem:kreska pseudotaktowa
.	8D\J	8ff\J
=49-	=49-	=49-
!LO:TX:t=P:problem:kreska pseudotaktowa	!	!
1AA	8C/L	8ee\L
.	8BB/J	8dd\
.	4AA/	8cc\
.	.	8b\J
!	!	!LO:TX:t=P:problem:mixed beam
.	8r	8a/L
.	8F\L	8aa\
.	8E\	8gg\
!	!LO:TX:t=P:problem:kreska pseudotaktowa	!LO:TX:t=P:problem:kreska pseudotaktowa
.	8D\J	8ff\J
=50-	=50-	=50-
2C/	8C/L	4ee\
.	16AA/L	.
.	16BB/	.
.	16C/	4r
.	16D/	.
.	16E/	.
.	16C/JJ	.
!	!LO:TX:t=P:problem:kreska pseudotaktowa	!
2D/	2D/	8dd\L
.	.	16b\L
.	.	16cc\
.	.	16dd\
.	.	16ee\
.	.	16ff\
!	!	!LO:TX:t=P:problem:kreska pseudotaktowa
.	.	16dd\JJ
=51-	=51-	=51-
2E\	16r	2ee\
.	16E\LL	.
.	16G\	.
.	16F\JJ	.
.	16E/LL	.
.	16D/	.
.	16C/	.
.	16BB/JJ	.
!LO:TX:t=P:problem:kreska pseudotaktowa	!	!
2C/	8C/L	8r
.	16D/L	8ee\L
.	16C/JJ	.
.	8BB/L	8dd\
!	!LO:TX:t=P:problem:kreska pseudotaktowa	!LO:TX:t=P:problem:kreska pseudotaktowa
.	8AA/J	8cc\J
*	*	*custos:b
!	!	!LO:LB:g=original
=52-	=52-	=52-
1G	4GG/	[4b/
.	4AA/	32b/LLL]
.	.	32cc/
.	.	32a/
.	.	32b/
.	.	32cc/JJJ
.	.	32dd\LLL
.	.	32ee\
!	!	!LO:TX:t=P:problem:# above
.	.	32ff#X\JJJ
.	2GG/	8.gg\L
.	.	16dd\JK
.	.	8.gg\L
.	.	16ff#\Jk
*	*custos:C	*
!	!LO:LB:g=original	!
=53-	=53-	=53-
2C/	16C/LL	2ee\
.	16GG/	.
.	16AA/	.
.	16BB/JJ	.
.	16C/LL	.
.	16D/	.
.	16E/	.
.	16F/JJ	.
!LO:TX:t=P:problem:kreska pseudotaktowa	!	!
2GG/	8.G\L	2r
.	16D\Jk	.
.	8.G\L	.
!	!LO:TX:t=P:problem:kreska pseudotaktowa	!
.	16F\Jk	.
=54-	=54-	=54-
2C/	4E\	16r
.	.	16b\LL
.	.	16cc\
.	.	16dd\
.	4r	16ee\
.	.	16ffny\
.	.	16gg\
.	.	16ee\JJ
2AA/	16AA/LL	4aa\
.	16BB/	.
.	16C/	.
.	16D/JJ	.
.	16E\LL	4aa\
.	16F\	.
.	16G\	.
!	!LO:TX:t=P:problem:kreska pseudotaktowa	!
.	16A\JJ	.
=55-	=55-	=55-
2.BBny/	8B\L	8.gg\L
.	8G\	.
.	.	16gg\Jk
.	8B\	8.ff#X\L
.	8c\J	.
.	.	16ee\Jk
!	!LO:TX:t=P:problem:mixed beam	!
.	8d\L	8ff#X\L
.	8GG/	16b\L
.	.	16cc\J
4C/	8BB/	8dd\
!	!LO:TX:t=P:problem:kreska pseudotaktowa	!
.	8C/J	8ee\J,
=56-	=56-	=56-
!LO:TX:t=P:problem:podwójna ligatura	!	!LO:TX:t=P:problem:# above
[2D/	8D/L	8.ff#X\L
.	16C/L	.
.	16BB/JJ	16dd\Jk
.	16AA/LL	8ee\L
.	16GG/	.
!	!LO:SIC:v:s=16FF#/	!
.	16FF/	16aa\L
.	16EE/JJ	16gg\JJ
!	!LO:TX:t=P:problem:kreska pseudotaktowa	!
2D/]	2DD/	4ff#X\
*	*	*custos:gg
!	!	!LO:PB:g=original
.	.	32gg\LLL
!	!	!LO:TX:t=P:problem:# above
.	.	32ff#X\
.	.	32gg\
!	!	!LO:TX:t=P:problem:# above
.	.	32ff#X\
.	.	32gg\
!	!	!LO:TX:t=P:problem:# above
.	.	32ff#X\
.	.	32ee\
!	!	!LO:TX:t=P:problem:# above
.	.	32ff#X\JJJ,
=57-	=57-	=57-
2GG/	2GG/	4gg\
.	.	4dd\
!LO:TX:t=P:problem:kreska pseudotaktowa	!	!
2G\	4r	4dd\
.	4G\	4dd\
=58-	=58-	=58-
2G\	4G\	8r
.	.	8dd\L
.	4G\	8dd\
.	.	8b\J
2E\	8r	2ee\
.	8G\L	.
.	8G\	.
.	8E\J	.
*	*custos:A	*
!	!LO:PB:g=original	!
=59-	=59-	=59-
1A	2A\	8r
.	.	8cc\L
.	.	8cc\
.	.	8a\J
!	!LO:TX:t=P:problem:kreska pseudotaktowa	!
.	2A\	8.cc\L
.	.	32dd\LL
.	.	32ee\JJJ
.	.	16ff#X\
.	.	32gg\LLL
!	!	!LO:TX:t=P:problem:# above
.	.	32ff#X\
.	.	32gg\
!	!	!LO:TX:t=P:problem:# above
.	.	32ff#X\
.	.	32ee\
!	!	!LO:TX:t=P:problem:# above
.	.	32ff#X\JJJ,
=60-	=60-	=60-
2G\	8G\	2gg\
*	*clefC3	*
.	8d\L	.
.	8d\	.
.	8B\J	.
!	!LO:TX:t=P:problem:kreska pseudotaktowa	!
2C/	2e\	8r
.	.	8gg\L
.	.	8gg\
.	.	8ee\J
*	*clefF4	*
=61-	=61-	=61-
2C/	8r	2gg\
.	8G\L	.
.	8G\	.
.	8E\J	.
!LO:TX:t=P:problem:kreska pseudotaktowa	!LO:TX:t=P:problem:mixed beam	!LO:LB:g=original
2AA/	8A\L	2r
.	8C/	.
.	8C/	.
!	!LO:TX:t=P:problem:kreska pseudotaktowa	!
.	8AA/J	.
=62-	=62-	=62-
2D/	8.D\L	1r
.	16E\Jk	.
.	16F\LL	.
.	16G\	.
.	16A\	.
.	16B\JJ	.
2D/	16c\LL	.
.	16B\	.
.	16c\	.
.	16B\	.
.	16c\	.
.	16B\	.
.	16A\	.
!	!LO:TX:t=P:problem:kreska pseudotaktowa	!
.	16B\JJ	.
=63-	=63-	=63-
2C/	2c\	8r
.	.	8gg\L
.	.	8gg\
.	.	8ee\
2C/	8r	8aa\
.	8C/L	8ee\
.	8C/	8ee\
!	!LO:TX:t=P:problem:kreska pseudotaktowa	!
.	8AA/J	8cc\J
*custos:G	*	*
!LO:LB:g=original	!	!
=64-	=64-	=64-
2G\	8BB/	8dd\L
*	*clefC4	*
*	*custos:e	*
!	!LO:LB:g=original	!
.	8e\L	8gg\
.	8e\	8gg\
.	8d\J	8ffny\
2A\	8c\L	8ee\
.	16d\L	16ff\L
.	16c\JJ	16ee\J
.	8B\L	8dd\
!	!LO:TX:t=P:problem:kreska pseudotaktowa	!
.	8A\J	8cc\J
=65-	=65-	=65-
!	!	!LO:TX:t=P:problem:mixed beam
2G\	2G/	8b/L
.	.	8gg\
.	.	8gg\
.	.	16ff\L
.	.	16ee\JJ
*	*clefF4	*
!LO:TX:t=P:problem:kreska pseudotaktowa	!	!
2GG/	8r	4dd\
.	8G\L	.
.	8G\	32a/LLL
.	.	32b/
.	.	32cc/
.	.	32b/
!	!LO:TX:t=P:problem:kreska pseudotaktowa	!
.	8F\J	32cc/
.	.	32b/
.	.	32a/
.	.	32b/JJJ
=66-	=66-	=66-
2AA/	8E\L	2cc\
.	8A\	.
.	8A\	.
.	16G\L	.
.	16F\JJ	.
2C/	8E\L	2r
.	8G\	.
.	8G\	.
.	16F\L	.
.	16E\JJ	.
=67-	=67-	=67-
!LO:TX:t=P:problem:kreska pseudotaktowa	!	!
1D	4.D/	1r
.	8E\	.
.	16F\LL	.
.	16G\	.
.	16A\	.
.	16B\JJ	.
.	32c\LLL	.
.	32B\	.
.	32c\	.
.	32B\JJJ	.
.	32c\LLL	.
.	32B\	.
.	32A\	.
!	!LO:TX:t=P:problem:kreska pseudotaktowa	!
.	32B\JJJ	.
=68-	=68-	=68-
1C	2c\	8r
*	*	*custos:ee
!	!	!LO:LB:g=original
.	.	8ee\L
.	.	8ee\
.	.	8dd\J
!	!LO:LB:g=original	!
.	2C/	8cc\
.	.	16d/LL
.	.	16e/
.	.	16f/
.	.	16g/
.	.	16a/
!	!	!LO:TX:t=P:problem:kreska pseudotaktowa
.	.	16b/JJ
*	*clefC4	*
=69-	=69-	=69-
2E\	2r	8cc\
.	.	16dd\LL
.	.	16cc\JJ
.	.	8.b/L
.	.	16a/Jk
!LO:TX:t=P:problem:kreska pseudotaktowa	!	!LO:TX:t=P:problem:kreska pseudotaktowa
2E\	8r	2b/
.	8e\L	.
.	8e\	.
.	8d\J	.
=70-	=70-	=70-
!	!	!LO:TX:t=P:problem:mixed beam
2A\	8c#X\L	8a/L
.	16A\L	8aa\
.	16B\	.
!	!LO:TX:t=P:problem:# above	!
.	16c#X\	8aa\
.	16d\	.
.	16e\	8gg\J
!	!LO:TX:t=P:problem:# above	!
.	16c#X\JJ	.
2D/	2.d\	8ff#X\L
.	.	16dd\L
.	.	16ee\
!	!	!LO:TX:t=P:problem:# above
.	.	16ff#X\
.	.	16gg\
.	.	16aa\
!	!	!LO:TX:t=P:problem:kreska pseudotaktowa
!	!	!LO:TX:t=P:problem:# above
.	.	16ff#X\JJ
=71-	=71-	=71-
1E	.	8gg#X\L
.	.	8bb\
.	4cny\	8bb\
.	.	8aa\J
!	!LO:TX:t=P:problem:kreska pseudotaktowa	!
.	2B\	8gg#X\L
.	.	16ee\L
!	!	!LO:TX:t=P:problem:# above
.	.	16ff#X\
!	!	!LO:TX:t=P:problem:# above
.	.	16gg#X\
.	.	16aa\
.	.	16bb\
!	!	!LO:TX:t=P:problem:kreska pseudotaktowa
!	!	!LO:TX:t=P:problem:# above
.	.	16gg#X\JJ
*	*clefF4	*
=72-	=72-	=72-
4AA/	4.A\	4.aa\
4A\	.	.
.	8AA/	8cc\
*	*	*custos:cc
!	!	!LO:LB:g=original
4A\	4AA/	4cc\
!LO:TX:t=P:problem:kreska pseudotaktowa	!	!
4A\	4AA/	8a\L
!	!	!LO:TX:t=P:problem:kreska pseudotaktowa
.	.	8cc\J
=73-	=73-	=73-
2G\	4GG/	8.b/L
.	.	16cc/Jk
.	4G\	8.a/L
.	.	16b/Jk
4C/	4C/	8.cc\L
.	.	16dd\Jk
4C/	2c\	8.ee\L
!	!	!LO:TX:t=P:problem:kreska pseudotaktowa
.	.	16ffny\Jk
=74-	=74-	=74-
4C/	.	4ggny\
4AA/	4A\	4aa\
4BB-X/	4B-X\	4ff\
4GG/	4G\	4gg\
=75-	=75-	=75-
2AA/	4A\	4.ee\
.	4AA/	.
.	.	8ff\
!	!	!LO:TX:t=P:problem:kreska pseudotaktowa
4D/	4D/	2dd\
!LO:TX:t=P:problem:kreska pseudotaktowa	!LO:TX:t=P:problem:kreska pseudotaktowa:między nutą a kropką	!
4GG/	4.GG/	.
=76-	=76-	=76-
4GG/	.	8r
.	8GG/	8dd\L
4GG/	8.G\L	8dd\
.	.	8dd\J
.	16F\Jk	.
*	*custos:E	*
!	!LO:LB:g=original	!
2C/	8.E\L	8.gg\L
.	16D\Jk	16ff\Jk
.	8.C/L	8.ee\L
!	!LO:TX:t=P:problem:kreska pseudotaktowa	!LO:TX:t=P:problem:kreska pseudotaktowa
.	16BB/Jk	16dd\Jk
=77-	=77-	=77-
2AA/	8.AA/L	8.cc/L
.	16GG/Jk	16b/Jk
.	8.FF/L	8.a/L
.	16EE/Jk	16g/Jk
4D/	4DD/	8.f/L
.	.	16d/Jk
!LO:TX:t=P:problem:kreska pseudotaktowa	!	!
4D/	[>4D/	8.f/L
!	!	!LO:TX:t=P:problem:kreska pseudotaktowa
.	.	16g/Jk
*	*	*custos:a
!	!	!LO:LB:g=original
=78-	=78-	=78-
4D/	8D/L]	4a/
.	8C/	.
4D/	8D/	8f/L
.	8E/J	8g/
2F\	8F\L	8a/
.	8G\	8b/
.	8A\	8cc/
!	!LO:TX:t=P:problem:kreska pseudotaktowa	!LO:TX:t=P:problem:kreska pseudotaktowa
.	8Bny\J	8dd/J
*custos:C	*	*
!LO:LB:g=original	!	!
=79-	=79-	=79-
2C/	4c\	8ee\L
.	.	8cc\
.	8C/L	8ee\
.	8D/J	8ff\J
4.E\	8E\L	4gg\
.	8C\	.
.	8E\	8g/L
!	!	!LO:TX:t=P:problem:kreska pseudotaktowa
8F\	8F\J,	8a/
=80-	=80-	=80-
2G\	4G\	8b/
.	.	8cc/
.	4GG/	8dd/
.	.	8b/J
!LO:TX:t=P:problem:kreska pseudotaktowa	!LO:TX:t=P:problem:kreska pseudotaktowa	!
2C/	2C/	8cc\L
.	.	16gg\L
.	.	16ff\J
.	.	8ee\
!	!	!LO:TX:t=P:problem:kreska pseudotaktowa
.	.	8cc\J
=81-	=81-	=81-
!LO:TX:t=P:problem:t. 80-115 zapisane repetycją	!	!
0Cyy	8r	2gg\
.	16G\LL	.
.	16F\JJ	.
.	8E\L	.
.	8C\J	.
!	!LO:TX:t=P:problem:kreska pseudotaktowa	!
.	2G\	16r
.	.	16gg\LL
.	.	16gg\
.	.	16ff\
.	.	16ee\
.	.	16dd\
.	.	16cc\
!	!	!LO:TX:t=P:problem:kreska pseudotaktowa
.	.	16b\JJ
=82-	=82-	=82-
.	16r	2cc\
.	16G\LL	.
.	16G\	.
.	16F\JJ	.
.	16E/LL	.
.	16D/	.
.	16C/	.
.	16BB/JJ	.
*	*custos:C	*
!	!LO:LB:g=original	!
!	!LO:TX:t=P:problem:kreska pseudotaktowa	!
.	2C/	16r
.	.	16g/LL
.	.	16a/
.	.	16b/
.	.	16cc/
.	.	16dd/
.	.	16ee/
!	!	!LO:TX:t=P:problem:kreska pseudotaktowa
.	.	16ff/JJ
=83-	=83-	=83-
1GGyy	16r	2gg\
.	16GG/LL	.
.	16AA/	.
.	16BB/JJ	.
.	16C\LL	.
.	16D\	.
.	16E\	.
.	16F\JJ	.
!	!LO:TX:t=P:problem:kreska pseudotaktowa	!LO:LB:g=original
.	2G\	16r
.	.	16gg\LL
.	.	16gg\
.	.	16ff\
.	.	16ee\
.	.	16dd\
.	.	16cc\
!	!	!LO:TX:t=P:problem:kreska pseudotaktowa
.	.	16b\JJ
=84-	=84-	=84-
!LO:TX:t=P:problem:kreska pseudotaktowa	!	!
1AAyy	16r	2cc\
.	16AA/LL	.
.	16BB/	.
.	16C/JJ	.
.	16D\LL	.
.	16E\	.
.	16F\	.
.	16G\JJ	.
!	!LO:TX:t=P:problem:kreska pseudotaktowa	!
.	2A\	16r
.	.	16aa\LL
.	.	16gg\
.	.	16ff\
.	.	16ee\
.	.	16dd\
.	.	16cc\
!	!	!LO:TX:t=P:problem:kreska pseudotaktowa
.	.	16b\JJ
=85-	=85-	=85-
!	!	!LO:TX:t=P:problem:korekta dźwięku
!	!	!LO:TX:a:t=c:mod=
2C/yy	16r	2cc/
.	16c\LL	.
.	16c\	.
.	16B\JJ	.
.	16A\LL	.
.	16G\	.
.	16F\	.
.	16E\JJ	.
!	!LO:TX:t=P:problem:mixed beam	!
2D/yy	16D/LL	16r
.	16d\	16ff\LL
.	16d\	16ff\
.	16c\JJ	16ee\
.	16B\LL	16dd\
.	16A\	16cc\
.	16G\	16b\
!	!LO:TX:t=P:problem:kreska pseudotaktowa	!LO:TX:t=P:problem:kreska pseudotaktowa
.	16F\JJ	16a\JJ
=86-	=86-	=86-
!	!	!LO:TX:t=P:problem:mixed beam
2E\yy	8E\	8g/L
*	*clefC3	*
.	8e\L	8gg\
.	8e\	8gg\
.	8d\J	8ff\J
!LO:TX:t=P:problem:kreska pseudotaktowa	!	!
2C/yy	8c/	8ee\L
*	*clefF4	*
.	8C/L	16ff\L
.	.	16ee\J
.	8BB/	8dd\
!	!LO:TX:t=P:problem:kreska pseudotaktowa	!LO:TX:t=P:problem:kreska pseudotaktowa
.	8AA/J	8cc\J
=87-	=87-	=87-
1Gyy	4GG/	8b\L
.	.	8dd\
.	4FF/	8dd\
.	.	8cc\J
*	*	*custos:b
!	!LO:TX:t=P:problem:kreska pseudotaktowa	!LO:LB:g=original
.	2GG/	8b/L
.	.	16d/L
.	.	16e/
.	.	16f/
.	.	16g/
.	.	16a/
!	!	!LO:TX:t=P:problem:kreska pseudotaktowa
.	.	16b/JJ
*	*custos:C	*
!	!LO:LB:g=original	!
=88-	=88-	=88-
2C/yy	16C/LL	2cc\
.	16GG/	.
.	16AA/	.
.	16BB/JJ	.
.	16C\LL	.
.	16D\	.
.	16E\	.
.	16F\JJ	.
!LO:TX:t=P:problem:kreska pseudotaktowa	!LO:TX:t=P:problem:kreska pseudotaktowa	!
2GG/yy	2G\	16r
.	.	16c/LL
.	.	16d/
.	.	16e/J
.	.	16f/L
.	.	16g/
.	.	16a/
!	!	!LO:TX:t=P:problem:kreska pseudotaktowa
.	.	16b/JJ
=89-	=89-	=89-
2C/yy	8r	8cc\L
.	8c\L	8ee\
.	8c\	8ee\
.	8B\J	8dd\J
2AA/yy	8A\L	8cc\L
.	8G\	16b\L
.	.	16a\JJ
.	8F\	4aa\
!	!LO:TX:t=P:problem:kreska pseudotaktowa	!
.	8E\J	.
=90-	=90-	=90-
2.BBny/yy	8D/L	2gg\
.	8C/	.
.	8BB/	.
.	8AA/J	.
.	4GG/	16aa\LL
.	.	16dd\
.	.	16ee\
.	.	16ff\JJ
4C/yy	8FF/L	8gg\L
!	!LO:TX:t=P:problem:kreska pseudotaktowa	!
.	8EE/J	16aa\L
!	!	!LO:TX:t=P:problem:kreska pseudotaktowa
.	.	16bb\JJ
=91-	=91-	=91-
!	!LO:TX:tp=P:problem:32 oznaczona jako 3:global	!
!LO:TX:t=P:problem:podwójna ligatura	!LO:N:vis=16	!
[y2D/yy	32DD/	8aa\L
!	!LO:TX:b:B:t=3:mod=	!
.	4d\	.
.	.	8gg\
.	.	8ff#X\
!	!LO:N:vis=16	!
.	32d\LLL	.
!	!LO:N:vis=16	!
.	32c\	.
!	!LO:TX:b:B:t=3:mod=	!
!	!LO:N:vis=16	!
.	32B\	.
!	!LO:N:vis=16	!
.	32A\	8dd\J
!	!LO:N:vis=16	!
.	32G\	.
!	!LO:TX:b:B:t=3:mod=	!
!	!LO:N:vis=16	!
.	32F\	.
!	!LO:N:vis=16	!
.	32E\JJJ	.
*	*	*custos:aa
!	!	!LO:LB:g=original
2D/]yy	4D/	16aa\LL
.	.	16gg\
.	.	16ee\
!	!	!LO:TX:t=P:problem:# above
.	.	16ff#X\JJ
!	!LO:TX:t=P:problem:kreska pseudotaktowa	!
.	4DD/	32gg\LLL
!	!	!LO:TX:t=P:problem:# above
.	.	32ff#X\
.	.	32gg\
!	!	!LO:TX:t=P:problem:# above
.	.	32ff#X\
.	.	32gg\
!	!	!LO:TX:t=P:problem:# above
.	.	32ff#X\
.	.	32ee\
!	!	!LO:TX:t=P:problem:kreska pseudotaktowa
!	!	!LO:TX:t=P:problem:# above
.	.	32ff#X\JJJ
=92-	=92-	=92-
!	!	!LO:TX:t=P:problem:kreska pseudotaktowa
2GG/yy	2GG/	1gg
!LO:TX:t=P:problem:kreska pseudotaktowa	!	!
2G\yy	4r	.
!	!LO:TX:t=P:problem:kreska pseudotaktowa	!
.	4G\	.
=93-	=93-	=93-
2G\yy	8G\L	4r
.	16A\L	.
.	16G\JJ	.
.	8E\L	4gg\
.	16F\L	.
.	16G\JJ	.
*	*custos:E	*
!	!LO:LB:g=original	!
2E\yy	8E\L	8gg\L
.	16F\L	16aa\L
.	16E\JJ	16gg\JJ
.	8C/L	8ee\L
.	16D/L	16ffny\L
!	!LO:TX:t=P:problem:kreska pseudotaktowa	!LO:TX:t=P:problem:kreska pseudotaktowa
.	16E/JJ	16gg\JJ
=94-	=94-	=94-
1Ayy	8C/L	8ee\L
.	16D/L	16ff\L
.	16C/JJ	16ee\JJ
.	8AA/L	8cc\L
.	16BB/L	16dd\L
.	16C/JJ	16ee\JJ
!	!LO:TX:t=P:problem:kreska pseudotaktowa	!
.	2AA/	8cc\L
.	.	16dd\L
.	.	16cc\JJ
.	.	8a/L
.	.	16b/L
!	!	!LO:TX:t=P:problem:kreska pseudotaktowa
.	.	16cc/JJ
=95-	=95-	=95-
2G\yy	4r	2b/
.	4G\	.
!	!LO:N:vis=16	!
2C/yy	32G\LLL	4r
!	!LO:TX:b:B:t=3:mod=	!
!	!LO:N:vis=16	!
.	32F\	.
!	!LO:N:vis=16	!
.	32G\	.
!	!LO:N:vis=16	!
.	32A\JJJ	.
.	8G\	.
!	!LO:N:vis=16	!LO:TX:t=P:problem:kreska pseudotaktowa
.	32E\LLL	4gg\
!	!LO:TX:b:B:t=3:mod=	!
!	!LO:N:vis=16	!
.	32D\	.
!	!LO:N:vis=16	!
.	32E\	.
!	!LO:N:vis=16	!
.	32F\JJJ	.
!	!LO:TX:t=P:problem:kreska pseudotaktowa	!
.	8G\	.
=96-	=96-	=96-
!	!LO:N:vis=16	!
2C/yy	32E\LLL	32gg\LLL
!	!LO:TX:b:B:t=3:mod=	!
!	!LO:N:vis=16	!
.	32D\	32ff\
!	!LO:N:vis=16	!
.	32E\	32gg\
!	!LO:N:vis=16	!
.	32F\JJJ	32aa\JJ
.	8E\	8gg\J
*	*	*custos:ee
!	!LO:N:vis=16	!LO:LB:g=original
.	32C/LLL	32ee\LLL
!	!LO:TX:b:B:t=3:mod=	!
!	!LO:N:vis=16	!
.	32BB/	32dd\
!	!LO:N:vis=16	!
.	32C/	32ee\
!	!LO:N:vis=16	!
.	32D/JJJ	32ff\JJ
.	8E\	8gg\J
!LO:TX:t=P:problem:kreska pseudotaktowa	!LO:N:vis=16	!
2AA/yy	32C/LLL	32ee\LLL
!	!LO:TX:b:B:t=3:mod=	!
!	!LO:N:vis=16	!
.	32BB/	32dd\
!	!LO:N:vis=16	!
.	32C/	32ee\
!	!LO:N:vis=16	!
.	32D/JJJ	32ff\JJ
.	8C/	8ee\J
!	!LO:TX:t=P:problem:kreska pseudotaktowa	!
.	4AA/	32cc\LLL
.	.	32b\
.	.	32cc\
.	.	32dd\JJ
!	!	!LO:TX:t=P:problem:kreska pseudotaktowa
.	.	8ee\J
=97-	=97-	=97-
2D/yy	4r	32ff\LLL
.	.	32ee\
.	.	32ff\
.	.	32gg\JJ
.	.	8ff\J
!	!LO:N:vis=16	!
.	32A\LLL	4r
!	!LO:TX:b:B:t=3:mod=	!
!	!LO:N:vis=16	!
.	32G\	.
!	!LO:N:vis=16	!
.	32A\	.
!	!LO:N:vis=16	!
.	32B\JJJ	.
.	8A\	.
!	!LO:N:vis=16	!
2D/yy	32F\LLL	32aa\LLL
!	!LO:TX:b:B:t=3:mod=	!
!	!LO:N:vis=16	!
.	32E\	32gg\
!	!LO:N:vis=16	!
.	32F\	32aa\
!	!LO:N:vis=16	!LO:TX:t=P:problem:♭ above
.	32G\JJJ	32bb-X\JJ
.	8F\	8aa\J
!	!LO:N:vis=16	!
.	32D/LLL	32ff\LLL
!	!LO:TX:b:B:t=3:mod=	!
!	!LO:N:vis=16	!
.	32C/	32ee\
!	!LO:N:vis=16	!
.	32D/	32ff\
!	!LO:N:vis=16	!
.	32E/JJJ	32gg\JJ
!	!	!LO:TX:t=P:problem:kreska pseudotaktowa
.	8D/	8ff\J
!	!LO:LB:g=original	!
=98-	=98-	=98-
2C/yy	4C/	4ee\
*	*clefC4	*
!	!LO:N:vis=16	!
.	32e\LLL	32gg\LLL
!	!LO:TX:b:B:t=3:mod=	!
!	!LO:N:vis=16	!
.	32d\	32ff\
!	!LO:N:vis=16	!
.	32e\	32gg\
!	!LO:N:vis=16	!
.	32f\JJJ	32aa\JJ
.	8e\	8gg\J
!	!LO:N:vis=16	!
2C/yy	32c\LLL	32ee\LLL
!	!LO:TX:b:B:t=3:mod=	!
!	!LO:N:vis=16	!
.	32B\	32dd\
!	!LO:N:vis=16	!
.	32c\	32ee\
!	!LO:N:vis=16	!
.	32d\JJJ	32ff\JJ
.	8c\	8ee\J
*	*	*custos:cc
!	!LO:N:vis=16	!LO:LB:g=original
.	32A/LLL	32cc\LLL
!	!LO:TX:b:B:t=3:mod=	!
!	!LO:N:vis=16	!
.	32G/	32b\
!	!LO:N:vis=16	!
.	32A/	32cc\
!	!LO:N:vis=16	!
.	32B/JJJ	32dd\JJ
!	!LO:TX:t=P:problem:kreska pseudotaktowa	!LO:TX:t=P:problem:kreska pseudotaktowa
.	8A/	8cc\J
*custos:G	*	*
!LO:LB:g=original	!	!
=99-	=99-	=99-
2G\yy	8G/L	8b/
.	16A/L	16cc\LL
.	16B/JJ	16dd\JJ
.	8.A/L	8.cc\L
.	16G/Jk	16b\Jk
2A\yy	8A\L	8cc\L
.	16B\L	16dd\L
.	16c\JJ	16ee\JJ
.	8.B\L	8.dd\L
!	!LO:TX:t=P:problem:kreska pseudotaktowa	!LO:TX:t=P:problem:kreska pseudotaktowa
.	16A\Jk	16cc\Jk
*	*clefF4	*
=100-	=100-	=100-
2G\yy	2G\	8b/
.	.	16d/LL
.	.	16e/
.	.	16f/
.	.	16g/
.	.	16a/
.	.	16b/JJ
!LO:TX:t=P:problem:kreska pseudotaktowa	!	!
2GG/yy	4r	16cc\LL
.	.	16b\
.	.	16cc\
.	.	16b\
!	!LO:TX:t=P:problem:kreska pseudotaktowa	!
.	4GG/	16cc\
.	.	16b\
.	.	16a\
!	!	!LO:TX:t=P:problem:kreska pseudotaktowa
.	.	16b\JJ
=101-	=101-	=101-
2AA/yy	8.AA/L	1cc
.	16GG/Jk	.
.	8.AA/L	.
.	16BB/Jk	.
2C/yy	8C/	.
.	16D\LL	.
.	16E\JJ	.
.	8.D/L	.
!	!LO:TX:t=P:problem:kreska pseudotaktowa	!
.	16C/Jk	.
=102-	=102-	=102-
!LO:TX:t=P:problem:kreska pseudotaktowa	!	!
1Dyy	8.D\L	1r
.	16E\Jk	.
.	16F\LL	.
.	16G\	.
.	16A\	.
.	16B\JJ	.
!	!LO:LB:g=original	!
.	16c\LL	.
.	16B\	.
.	16c\	.
.	16B\	.
.	16c\	.
.	16B\	.
.	16A\	.
.	16B\JJ	.
=103-	=103-	=103-
1Cyy	2c\	2r
!	!	!LO:TX:t=P:problem:kreska pseudotaktowa
.	2C/	2cc\
=104-	=104-	=104-
2E\yy	2r	8cc\L
.	.	16dd\L
.	.	16cc\JJ
.	.	8b/L
.	.	8a/J
*	*	*custos:b
!LO:TX:t=P:problem:kreska pseudotaktowa	!LO:TX:t=P:problem:kreska pseudotaktowa	!LO:LB:g=original
2E\yy	2E\	16b/
.	.	8gg\
.	.	16ff\
.	.	16ee\LL
.	.	16dd\
.	.	16cc\
!	!	!LO:TX:t=P:problem:kreska pseudotaktowa
.	.	16b\JJ
=105-	=105-	=105-
2A\yy	16AA/	16a/
.	4A\	8cc\
.	.	16b/
.	.	16a/LL
.	16G\LL	16g/JJ
!	!LO:SIC:v:s=16F#\	!
.	16F\	16f#X/LL
.	16E\JJ	16g/JJ
2D/yy	16D\LL	8a/
.	16E\	.
!	!LO:SIC:v:s=16F#\	!
.	16F\	16b/
.	16G\JJ	16cc\
*	*clefC4	*
.	16A\LL	8dd\
.	16B\	.
.	16c\	16ee\LL
!	!LO:TX:t=P:problem:kreska pseudotaktowa	!LO:TX:t=P:problem:kreska pseudotaktowa
.	16d\JJ	16ff\JJ
=106-	=106-	=106-
1Eyy	8e\L	8gg#X\L
.	16d\L	8ee\J
.	16c\JJ	.
.	16B/LL	2aa\
.	16A/	.
.	16G/	.
.	16F/JJ	.
!	!LO:TX:t=P:problem:kreska pseudotaktowa	!
.	2E/	.
.	.	4gg#X\
*	*clefF4	*
=107-	=107-	=107-
!	!	!LO:TX:t=P:problem:mixed beam
4AA/yy	4.AA/	8aa\L
.	.	8a/
4A\yy	.	8a/
.	8A\	8cc/J
4A\yy	8A\L	8ee\L
.	8c\	8ee\
!LO:TX:t=P:problem:kreska pseudotaktowa	!	!
4A\yy	8c\	8ee\
!	!LO:TX:t=P:problem:kreska pseudotaktowa	!
.	8A\J	16ee\L
.	.	16ff\JJ,
*	*	*custos:gg
!	!	!LO:LB:g=original
=108-	=108-	=108-
!	!	!LO:TX:t=P:problem:mixed beam
2G\yy	8.G\L	8.ggny\L
.	16E\Jk	16g/Jk
.	8.F\L	8.a/L
.	16G\Jk	16b/Jk
4C/yy	4C/	8.cc\L
.	.	16dd\Jk
!	!LO:TX:t=P:problem:kreska pseudotaktowa	!
4C/yy	[4c\	8.ee\L
.	.	16ff\Jk
=109-	=109-	=109-
4C/yy	4c\]	4gg\
4AA/yy	4A\	4aa\
!	!LO:TX:t=P:problem:♭ above	!
4BB-X/yy	4B-X\	4ff\
4GG/yy	4G\	4gg\
!	!LO:LB:g=original	!
=110-	=110-	=110-
2AA/yy	4A\	4.ee\
.	4AA/	.
.	.	8ff\
4D/yy	4DD/	2dd\
!LO:TX:t=P:problem:kreska pseudotaktowa	!LO:TX:t=P:problem:kreska pseudotaktowa:między nutą a kropką	!
4GG/yy	4.GG/	.
=111-	=111-	=111-
4GG/yy	.	8r
.	8GG/	8dd\L
4GG/yy	8.G\L	8dd\
.	.	8dd\J
.	16F\Jk	.
2C/yy	8.E\L	8.gg\L
.	16D\Jk	16ff\Jk
.	8.C/L	8.ee\L
!	!LO:TX:t=P:problem:kreska pseudotaktowa	!
.	16BB/Jk	16dd\Jk
=112-	=112-	=112-
2AA/yy	8.AA/L	8.cc\L
.	16GG/Jk	16b\Jk
.	8.FF/L	8.a/L
.	16EE/Jk	16g/Jk
4D/yy	4DD/	8.fny/L
.	.	16d/Jk
!LO:TX:t=P:problem:kreska pseudotaktowa	!LO:TX:t=P:problem:kreska pseudotaktowa	!
4D/yy	[>4D/	8.f/L
.	.	16g/Jk
*	*	*custos:a
!	!	!LO:PB:g=original
=113-	=113-	=113-
4D/yy	8D/L]	4a/
.	8C/	.
4D/yy	8D/	8f/L
.	8E/J	8g/
2F\yy	8F\L	8a/
.	8G\	8b/
.	8A\	8cc/
!	!LO:TX:t=P:problem:kreska pseudotaktowa	!
.	8Bny\J	8dd/J,
*custos:C	*	*
!LO:LB:g=original	!	!
=114-	=114-	=114-
2C/yy	4c\	8ee\L
.	.	8cc\
.	8C/L	8ee\
.	8D/J	8ff\J
4.E\yy	8E\L	4gg\
.	8C\	.
.	8E\	8g/L
!	!	!LO:TX:t=P:problem:kreska pseudotaktowa
8F\yy	8F\J	8a/J
=115-	=115-	=115-
!	!	!LO:TX:t=P:problem:mixed beam
2G\yy	4G\	8b/L
.	.	8gg\
.	4GG/	8gg\
.	.	8gg\J
!LO:TX:t=P:problem:kreska pseudotaktowa	!LO:TX:t=P:problem:mixed beam	!
2C/yy	8C/L	4ee\
.	8c\	.
!	!	!LO:TX:t=P:problem:kreska pseudotaktowa
.	8c\	4r
!	!LO:TX:t=P:problem:kreska pseudotaktowa	!
.	8c\J	.
=116-	=116-	=116-
4r	4A\	16cc\LL
.	.	16dd\
.	.	16ee\
.	.	16cc\
4AA/	4r	16ee\
.	.	16dd\JJ
.	.	8cc\
!	!	!LO:TX:t=P:problem:kreska pseudotaktowa
4AA/	16A\LL	2r
.	16B\	.
.	16c\	.
.	16A\JJ	.
4AA/	16c\LL	.
.	16B\J	.
!	!LO:TX:t=P:problem:kreska pseudotaktowa	!
.	8A\J	.
*	*custos:C	*
!	!LO:LB:g=original	!
=117-	=117-	=117-
2D/	2r	16ff\LL
.	.	16gg\
.	.	16aa\
.	.	16ff\
.	.	16aa\
.	.	16gg\JJ
.	.	8ff\
*	*	*custos:gg
!LO:TX:t=P:problem:kreska pseudotaktowa	!	!LO:LB:g=original
2C/	16C/LL	2r,
.	16D/	.
.	16E/	.
.	16C/JJ	.
.	16E/LL	.
.	16D/J	.
!	!LO:TX:t=P:problem:kreska pseudotaktowa	!
.	8C/J	.
=118-	=118-	=118-
4r	4r	4r
4G\	4G\	4gg\
4E\	4E\	4gg\
!	!	!LO:TX:t=P:problem:kreska pseudotaktowa
4AA/	4AA/	4ee\
=119-	=119-	=119-
!	!LO:TX:t=P:problem:mixed beam	!
2D/	8DD/L	8ff\L
.	16D\L	16ff\L
.	16E\JJ	16gg\J
.	8F\L	8aa\
.	8D\J	8ff\J
!LO:TX:t=P:problem:kreska pseudotaktowa	!	!
2D/	8F\L	8aa\L
.	8E\J	8gg\J
!	!LO:TX:t=P:problem:kreska pseudotaktowa	!LO:TX:t=P:problem:kreska pseudotaktowa
.	4D\	4ff\
*	*clefC4	*
=120-	=120-	=120-
0.AA	8r	8r
!	!LO:TX:t=P:problem:# above	!
.	16c#X\LL	16ee\LL
.	16d\JJ	16ff\J
.	8e\L	8gg\
!	!LO:TX:t=P:problem:# above	!
.	8c#X\	8ee\
.	8e\	8gg\
.	8d\J	8ff\J
!	!	!LO:TX:t=P:problem:kreska pseudotaktowa
.	4c#X\	4ee\
*	*clefF4	*
*	*custos:AA	*
!	!LO:LB:g=original	!
=121-	=121-	=121-
.	8r	8r
.	16AA/LL	16cc#X\LL
.	16BB/JJ	16dd\JJ
!	!LO:TX:t=P:problem:# above	!
.	8C#X/L	8ee\L
!	!	!LO:TX:t=P:problem:# above
.	8AA/	8cc#X\
.	8C#X/	8ee\
.	8BB/J	8dd\
.	2AA/	8cc#\
.	.	8b\J
=122-	=122-	=122-
.	.	8cc#X\L
.	.	8a\J
.	4GG/	2dd\
.	2AA/	.
.	.	4cc#X\
=123-	=123-	=123-
1D;;l	1D;;l	1dd;;l
==	==	==
*-	*-	*-
!!!system-decoration: [(g1)]s3
!!!RDF**kern: > = above
!!!RDF**kern: < = below
!!!RDF**kern: i = editorial accidental
!!!RDF**kern: l = terminal long
!!!ENC: Anastazja Marusiak
!!!END: 2022-10-30
!!!ENC: Katarzyna Serwa
!!!END: 2022-12-02
!!!YEC: Copyright 2022 Narodowy Instytut Fryderyka Chopina (https://polishscores.org)
!!!YEM: License CC-BY-4.0 (https://creativecommons.org/licenses/by/4.0)
